src/static/logos/saucelabs.svg

<?xml version="1.0" encoding="UTF-8"?>
<svg width="256px" height="256px" viewBox="0 0 256 256" version="1.1" xmlns="http://www.w3.org/2000/svg" xmlns:xlink="http://www.w3.org/1999/xlink" preserveAspectRatio="xMidYMid">
    <g>
        <path d="M31.2763264,165.0445 L99.485443,165.076368 L61.282729,237.1287 C6.17113944,203.483033 -15.2246749,134.043833 11.3910298,75.2164969 C40.5178905,10.8505962 116.298716,-17.7153971 180.664617,11.4050901 L57.8984045,134.171302 L167.203801,134.171302 L86.8213134,215.350476 L120.014462,152.724539 L40.4796495,152.724539 C38.2425537,144.674818 37.1016985,136.351037 37.1016985,127.995388 C37.1654334,77.8296288 77.8155685,37.1731202 127.981328,37.1093853 C129.052075,37.1093853 130.103701,37.1794937 131.168074,37.1794937 L142.869806,25.458641 C138.013205,24.7448099 133.105616,24.3942678 128.191653,24.3942678 C71.0724135,24.3942678 24.4503159,70.869775 24.4503159,127.995388 C24.4184484,140.659518 26.7320262,153.221671 31.2763264,165.0445 Z M194.6863,18.8557028 C249.836131,52.5013697 271.238319,121.978811 244.590747,180.825267 C215.444765,245.178421 139.651193,273.725294 75.298039,244.579313 L197.127348,121.8131 L87.5223976,121.8131 L169.141342,40.5829387 L135.935447,103.272611 L215.457512,103.272611 C218.873704,114.770391 218.873704,127.995388 218.873704,127.995388 C218.809969,178.161148 178.153461,218.811283 127.987701,218.875018 C126.789485,218.875018 125.597642,218.792162 124.405799,218.792162 L112.818789,230.493894 C117.841101,231.226846 122.914401,231.596509 127.987701,231.596509 C140.728313,231.602882 153.360575,229.26381 165.247139,224.687643 C218.599644,204.15225 245.202602,144.260541 224.667209,90.9080354 L156.477213,90.9080354 L194.6863,18.8557028 Z" fill="#E12826" fill-rule="nonzero"></path>
    </g>
</svg>

<svg width="256" height="256" xmlns="http://www.w3.org/2000/svg" preserveAspectRatio="xMidYMid"><path d="M31.276 165.044l68.21.032-38.203 72.053C6.17 203.483-15.225 134.044 11.39 75.216c29.127-64.365 104.908-92.931 169.274-63.81L57.898 134.17h109.306l-80.383 81.18 33.193-62.626H40.48a92.387 92.387 0 01-3.378-24.73c.063-50.165 40.714-90.822 90.88-90.886 1.07 0 2.122.07 3.186.07l11.702-11.72a100.948 100.948 0 00-14.678-1.065c-57.12 0-103.742 46.476-103.742 103.601a102.547 102.547 0 006.826 37.05zm163.41-146.188c55.15 33.645 76.552 103.123 49.905 161.97-29.146 64.352-104.94 92.9-169.293 63.753l121.83-122.766H87.521l81.62-81.23-33.207 62.69h79.523c3.416 11.497 3.416 24.722 3.416 24.722-.064 50.166-40.72 90.816-90.886 90.88-1.199 0-2.39-.083-3.582-.083l-11.587 11.702a105.081 105.081 0 0015.169 1.103 103.56 103.56 0 0037.26-6.91c53.352-20.535 79.955-80.426 59.42-133.779h-68.19l38.208-72.052z" fill="#E12826"/></svg>
